X: 9423
T: Danns A Chorrachosaig
R: reel
M: 4/4
K: Amixolydian
f2Bd cAB2|f2ef aef2|e2cf eAc2|a2fe fedA|
f2Bd cAB2|f2ef aef2|e2cf eAc2|a2ec BBBc|
fBBc fBc2|fBBc ABce|f2fe d2cd|eAA2 ceea|
fBBc fBc2|fBBc ABce|f2fe d2cd|eAA2 cBBe|
f2Bc BAB2|f2fa fed2|c2ec BAB2|f2ed cecA|
f2Bc BAB2|f2fa fed2|c2ec BAB2|f2ec BBBc|
a2af aeea|f2fe fcce|f2ec efa2|eAA2 fBBc|
a2af aeea|faee fcce|f2af eAc2|B2fB cAA2|

